TuxGuitar/src-skins/Breeze/TuxGuitar/sidebar-expand-left_top.svg

<?xml version="1.0" encoding="UTF-8" standalone="no"?>
<svg
   viewBox="0 0 22 22"
   version="1.1"
   id="svg9"
   sodipodi:docname="sidebar-expand-left_top.svg"
   inkscape:version="1.2.2 (b0a8486541, 2022-12-01)"
   xmlns:inkscape="http://www.inkscape.org/namespaces/inkscape"
   xmlns:sodipodi="http://sodipodi.sourceforge.net/DTD/sodipodi-0.dtd"
   xmlns="http://www.w3.org/2000/svg"
   xmlns:svg="http://www.w3.org/2000/svg">
  <defs
     id="defs13" />
  <sodipodi:namedview
     id="namedview11"
     pagecolor="#ffffff"
     bordercolor="#000000"
     borderopacity="0.25"
     inkscape:showpageshadow="2"
     inkscape:pageopacity="0.0"
     inkscape:pagecheckerboard="0"
     inkscape:deskcolor="#d1d1d1"
     showgrid="false"
     inkscape:zoom="33.772727"
     inkscape:cx="11"
     inkscape:cy="10.985195"
     inkscape:window-width="1920"
     inkscape:window-height="1021"
     inkscape:window-x="0"
     inkscape:window-y="0"
     inkscape:window-maximized="1"
     inkscape:current-layer="svg9" />
  <style
     type="text/css"
     id="current-color-scheme">
        .ColorScheme-Text {
            color:#232629;
        }
    </style>
  <g
     class="ColorScheme-Text"
     fill="currentColor"
     id="g7"
     transform="rotate(90,11,11)">
    <path
       d="M 3,3 V 19 H 19 V 3 Z M 8,4 H 18 V 18 H 8 Z"
       stroke-linecap="square"
       stroke-linejoin="round"
       id="path3" />
    <path
       d="M 11.353516,6.6464844 15.707031,11 11.353516,15.353516 10.646484,14.646484 14.292969,11 10.646484,7.3535156 Z"
       id="path5" />
  </g>
</svg>

<?xml version="1.0" encoding="UTF-8"?>
<svg id="svg9" version="1.1" viewBox="0 0 22 22" xmlns="http://www.w3.org/2000/svg">
 <style id="current-color-scheme" type="text/css">.ColorScheme-Text {
            color:#232629;
        }</style>
 <g id="g7" class="ColorScheme-Text" transform="rotate(90,11,11)" fill="currentColor">
  <path id="path3" d="m3 3v16h16v-16zm5 1h10v14h-10z" stroke-linecap="square" stroke-linejoin="round"/>
  <path id="path5" d="m11.354 6.6465 4.3535 4.3535-4.3535 4.3535-0.70703-0.70703 3.6465-3.6465-3.6465-3.6465z"/>
 </g>
</svg>
